X: 1
T: Arthur's Seat
R: reel
O:
B: Athole Collection
D:
Z: 1997 by John Chambers <jc:trillian.mit.edu>
N:
M: C|
L: 1/8
K:Bm
c \
| "Bm"BFF2 d2de | "A"cAeA "F#7"fedc \
| "Bm"BFF2 d2cd |1 "F#7"fedc "Bm"dBB \
:|2 "F#7"fedc "Bm"B3 |]
c \
| "Bm"Bb-ba "G"gfed | "A"caed cAAc \
|1 "Bm"Bb-ba "G"gfed | "A"caec "Bm"dBB \
:|2 "Bm"B2Bc "G"dcde | "F#7"fedc "Bm"B3 |]
